Origami/48x48/apps/safeeyes.svg

<svg width="48" height="48" version="1" xmlns="http://www.w3.org/2000/svg">
 <path d="m24 5c-11.08 0-20 8.92-20 20s8.92 20 20 20 20-8.92 20-20-8.92-20-20-20z" style="opacity:.2"/>
 <path d="m24 4c-11.08 0-20 8.92-20 20s8.92 20 20 20 20-8.92 20-20-8.92-20-20-20z" style="fill:#d2d2d2"/>
 <circle transform="matrix(.70710678 .70710678 -.70710678 .70710678 0 0)" cx="34.648" cy=".707" r="14" style="opacity:.1"/>
 <path d="m24 4c-11.08 0-20 8.92-20 20 0 0.167874 0.007647 0.333141 0.0117188 0.5 0.2646716-10.846137 9.0761552-19.5 19.988281-19.5s19.72361 8.653863 19.988281 19.5c0.004072-0.166859 0.011719-0.332126 0.011719-0.5 0-11.08-8.92-20-20-20z" style="fill:#ffffff;opacity:.2"/>
 <circle transform="matrix(.70710678 .70710678 -.70710678 .70710678 0 0)" cx="33.941" r="14" style="fill:#4d4d4d"/>
 <path d="m32.485281 16.514612c-1.313683-1.313684-2.854375-2.247256-4.489851-2.827047l-1.520556 3.887707-3.181981 8.131728 8.131728-3.181981 3.887707-1.520556c-0.579791-1.635476-1.513363-3.176168-2.827047-4.489851z" style="opacity:.2"/>
 <path d="m32.485281 15.514719c-1.313683-1.313684-2.854375-2.247256-4.489851-2.827047l-1.520556 3.887707-3.181981 8.131728 8.131728-3.181981 3.887707-1.520556c-0.579791-1.635476-1.513363-3.176168-2.827047-4.489851z" style="fill:#57beff"/>
 <circle cx="24" cy="15" r="2" style="opacity:.2"/>
 <circle cx="24" cy="14" r="2" style="fill:#94ff57"/>
 <circle cx="24" cy="35" r="2" style="opacity:.2"/>
 <circle cx="24" cy="34" r="2" style="fill:#94ff57"/>
 <circle transform="rotate(90)" cx="25" cy="-34" r="2" style="opacity:.2"/>
 <circle transform="rotate(90)" cx="24" cy="-34" r="2" style="fill:#94ff57"/>
 <circle transform="rotate(90)" cx="25" cy="-14" r="2" style="opacity:.2"/>
 <circle transform="rotate(90)" cx="24" cy="-14" r="2" style="fill:#94ff57"/>
</svg>

<svg xmlns="http://www.w3.org/2000/svg" width="48" height="48" version="1">
 <path style="opacity:0.2" d="M 24,5 C 12.92,5 4,13.92 4,25 4,36.08 12.92,45 24,45 35.08,45 44,36.08 44,25 44,13.92 35.08,5 24,5 Z"/>
 <path style="fill:#d2d2d2" d="M 24,4 C 12.92,4 4,12.92 4,24 4,35.08 12.92,44 24,44 35.08,44 44,35.08 44,24 44,12.92 35.08,4 24,4 Z"/>
 <circle style="opacity:0.1" cx="34.648" cy=".707" r="14" transform="matrix(0.70710678,0.70710678,-0.70710678,0.70710678,0,0)"/>
 <path style="fill:#ffffff;opacity:0.2" d="M 24 4 C 12.92 4 4 12.92 4 24 C 4 24.167874 4.007647 24.333141 4.0117188 24.5 C 4.2763904 13.653863 13.087874 5 24 5 C 34.912126 5 43.72361 13.653863 43.988281 24.5 C 43.992353 24.333141 44 24.167874 44 24 C 44 12.92 35.08 4 24 4 z"/>
 <circle style="fill:#4d4d4d" cx="33.941" cy="0" r="14" transform="matrix(0.70710678,0.70710678,-0.70710678,0.70710678,0,0)"/>
 <path style="opacity:0.2" d="M 32.485281,16.514612 C 31.171598,15.200928 29.630906,14.267356 27.99543,13.687565 l -1.520556,3.887707 -3.181981,8.131728 8.131728,-3.181981 3.887707,-1.520556 c -0.579791,-1.635476 -1.513363,-3.176168 -2.827047,-4.489851 z"/>
 <path style="fill:#57beff" d="M 32.485281,15.514719 C 31.171598,14.201035 29.630906,13.267463 27.99543,12.687672 l -1.520556,3.887707 -3.181981,8.131728 8.131728,-3.181981 3.887707,-1.520556 c -0.579791,-1.635476 -1.513363,-3.176168 -2.827047,-4.489851 z"/>
 <circle style="opacity:0.2" cx="24" cy="15" r="2"/>
 <circle style="fill:#94ff57" cx="24" cy="14" r="2"/>
 <circle style="opacity:0.2" cx="24" cy="35" r="2"/>
 <circle style="fill:#94ff57" cx="24" cy="34" r="2"/>
 <circle style="opacity:0.2" cx="25" cy="-34" r="2" transform="matrix(0,1,-1,0,0,0)"/>
 <circle style="fill:#94ff57" cx="24" cy="-34" r="2" transform="matrix(0,1,-1,0,0,0)"/>
 <circle style="opacity:0.2" cx="25" cy="-14" r="2" transform="matrix(0,1,-1,0,0,0)"/>
 <circle style="fill:#94ff57" cx="24" cy="-14" r="2" transform="matrix(0,1,-1,0,0,0)"/>
</svg>
